Sources/FrostedUI/Resources/Icons.xcassets/bellSlash20.imageset/bell-slash-20.svg

<svg width="20" height="20" viewBox="0 0 20 20" fill="none" xmlns="http://www.w3.org/2000/svg" data-fui-icon="true">
  <path
    d="M18.7197 0.219727C19.0126 -0.0731667 19.4874 -0.0731667 19.7803 0.219727C20.0732 0.51262 20.0732 0.98738 19.7803 1.28027L1.28027 19.7803C0.98738 20.0732 0.51262 20.0732 0.219727 19.7803C-0.0731667 19.4874 -0.0731667 19.0126 0.219727 18.7197L18.7197 0.219727ZM16.4229 6.75775C16.5954 6.58524 16.8888 6.68024 16.9186 6.92238C16.9577 7.23935 16.9823 7.53201 16.9961 7.79004C17.0296 8.41417 17.2268 8.98197 17.585 9.39551L17.9619 9.83008C19.4099 11.5012 19.3669 13.9948 17.8623 15.6152C17.0426 16.4979 15.8921 16.9999 14.6875 17H13.5237C13.3654 17 13.2358 17.1234 13.2138 17.2801C13.1024 18.0727 12.7409 18.7196 12.2168 19.1855C11.594 19.739 10.7846 19.9999 10 20C9.21546 19.9999 8.40597 19.7389 7.7832 19.1855C7.23317 18.6965 6.86299 18.008 6.77248 17.161C6.76283 17.0707 6.68807 17 6.59724 17C6.44387 17 6.36707 16.8146 6.47551 16.7061L7.59377 15.5879C7.65003 15.5316 7.72634 15.5 7.8059 15.5H14.6875C15.475 15.4999 16.2278 15.1717 16.7637 14.5947C17.7471 13.5353 17.7747 11.905 16.8281 10.8125L16.4521 10.3779C15.8273 9.65669 15.5449 8.74516 15.498 7.87012C15.4974 7.85729 15.4965 7.84437 15.4956 7.83137C15.4897 7.74489 15.5205 7.66013 15.5818 7.59883L16.4229 6.75775ZM8.59803 17C8.41987 17 8.27825 17.1558 8.32651 17.3273C8.41707 17.6491 8.58223 17.8891 8.7793 18.0645C9.09382 18.3439 9.53506 18.4999 10 18.5C10.465 18.4999 10.9062 18.344 11.2207 18.0645C11.4179 17.8891 11.5836 17.6492 11.6744 17.3272C11.7227 17.1558 11.5811 17 11.403 17H8.59803ZM10 0C12.1031 0.000109958 13.6072 0.711941 14.6634 1.74591C14.7788 1.85885 14.7748 2.04348 14.6606 2.15759L14.0264 2.79114C13.9052 2.91226 13.708 2.9066 13.5844 2.7879C12.7916 2.02649 11.6584 1.5001 10 1.5C7.66126 1.5001 6.36392 2.54441 5.59766 3.82227C4.80017 5.15247 4.56039 6.77795 4.50195 7.87012C4.4551 8.74532 4.17294 9.65661 3.54785 10.3779L3.17188 10.8125C2.43891 11.6584 2.29144 12.8258 2.71829 13.8017C2.77126 13.9228 2.75152 14.0659 2.65806 14.1593L1.98045 14.8369C1.84723 14.9702 1.62498 14.9491 1.5328 14.7848C0.657344 13.2242 0.819632 11.2362 2.03809 9.83008L2.41504 9.39551C2.77328 8.98193 2.97047 8.4143 3.00391 7.79004C3.06725 6.60605 3.32721 4.69105 4.31055 3.05078C5.32563 1.35793 7.09236 0.000101506 10 0Z"
    fill="currentColor"
  />
</svg>

<svg xmlns="http://www.w3.org/2000/svg" width="20" height="20" fill="none" data-fui-icon="true" viewBox="0 0 20 20"><path fill="currentColor" d="M18.72.22a.75.75 0 1 1 1.06 1.06l-18.5 18.5a.75.75 0 1 1-1.06-1.06zm-2.297 6.538a.29.29 0 0 1 .496.164c.039.317.063.61.077.868.034.624.23 1.192.589 1.606l.377.434A4.333 4.333 0 0 1 14.688 17h-1.164a.32.32 0 0 0-.31.28c-.112.793-.473 1.44-.997 1.906-.623.553-1.432.814-2.217.814s-1.594-.261-2.217-.814c-.55-.49-.92-1.178-1.01-2.025A.18.18 0 0 0 6.596 17a.172.172 0 0 1-.121-.294l1.118-1.118a.3.3 0 0 1 .212-.088h6.882a2.833 2.833 0 0 0 2.14-4.687l-.376-.435c-.625-.721-.907-1.633-.954-2.508l-.002-.039a.3.3 0 0 1 .086-.232zM8.598 17c-.178 0-.32.156-.271.327.09.322.255.562.452.737.315.28.756.436 1.221.436s.906-.156 1.22-.436c.198-.175.364-.415.454-.737.049-.171-.093-.327-.271-.327zM10 0c2.103 0 3.607.712 4.663 1.746a.29.29 0 0 1-.002.412l-.635.633a.317.317 0 0 1-.442-.003C12.792 2.026 11.658 1.5 10 1.5c-2.339 0-3.636 1.044-4.402 2.322C4.8 5.152 4.56 6.778 4.502 7.87c-.047.875-.33 1.787-.954 2.508l-.376.434a2.83 2.83 0 0 0-.454 2.99.32.32 0 0 1-.06.357l-.678.678c-.133.133-.355.112-.447-.052a4.33 4.33 0 0 1 .505-4.955l.377-.434c.358-.414.555-.982.589-1.606.063-1.184.323-3.099 1.307-4.74C5.326 1.359 7.092 0 10 0"/></svg>
